mj/qys/gl-mahjongtile-svg/d-2.svg

<svg xmlns="http://www.w3.org/2000/svg" viewBox="30 -115 580 830"><g><path d="M520 75q0 33 -23.5 56.5t-56.5 23.5t-56.5 -23.5t-23.5 -56.5t23.5 -56.5t56.5 -23.5t56.5 23.5t23.5 56.5zM535 75q0 -39 -28 -67t-67 -28t-67 28t-28 67t28 67t67 28t67 -28t28 -67zM510 75q0 -29 -20.5 -49.5t-49.5 -20.5t-49.5 20.5t-20.5 49.5t20.5 49.5t49.5 20.5 t49.5 -20.5t20.5 -49.5zM460 75q0 8 -6 14t-14 6t-14 -6t-6 -14t6 -14t14 -6t14 6t6 14zM450 75q0 -10 -10 -10t-10 10t10 10t10 -10zM469 60q-15 -13 -24 -17v-20l9 -6q25 6 37 26l-4 11zM426 17l9 6v20l-3 3q-11 3 -17 12l-4 2l-18 -6l-4 -11q12 -20 37 -26zM410 74 q0 6 1 10t3 8l3 6l-11 16h-12q-14 -17 -14 -39v-4l9 -7l19 6zM418 131l-4 -11l11 -16h4q4 1 11 1t11 -1h4l11 16l-4 11q-12 4 -22 4t-22 -4zM470 74l2 -4l19 -6l9 7v4q0 22 -14 39h-12l-11 -16l3 -6t3 -8t1 -10zM280 525q0 33 -23.5 56.5t-56.5 23.5t-56.5 -23.5 t-23.5 -56.5t23.5 -56.5t56.5 -23.5t56.5 23.5t23.5 56.5zM295 525q0 -39 -28 -67t-67 -28t-67 28t-28 67t28 67t67 28t67 -28t28 -67zM270 525q0 -29 -20.5 -49.5t-49.5 -20.5t-49.5 20.5t-20.5 49.5t20.5 49.5t49.5 20.5t49.5 -20.5t20.5 -49.5zM220 525q0 8 -6 14t-14 6 t-14 -6t-6 -14t6 -14t14 -6t14 6t6 14zM210 525q0 -10 -10 -10t-10 10t10 10t10 -10zM229 510q-15 -13 -24 -17v-20l9 -6q25 6 37 26l-4 11zM186 467l9 6v20l-3 3q-11 3 -17 12l-4 2l-18 -6l-4 -11q12 -20 37 -26zM170 524q0 6 1 10t3 8l3 6l-11 16h-12q-14 -17 -14 -39v-4 l9 -7l19 6zM178 581l-4 -11l11 -16h4q4 1 11 1t11 -1h4l11 16l-4 11q-12 4 -22 4t-22 -4zM230 524l2 -4l19 -6l9 7v4q0 22 -14 39h-12l-11 -16l3 -6t3 -8t1 -10zM550 685h-460q-13 0 -21.5 -8.5t-8.5 -21.5v-710q0 -13 8.5 -21.5t21.5 -8.5h460q13 0 21.5 8.5t8.5 21.5v710 q0 13 -8.5 21.5t-21.5 8.5zM610 655v-710q0 -25 -17.5 -42.5t-42.5 -17.5h-460q-25 0 -42.5 17.5t-17.5 42.5v710q0 25 17.5 42.5t42.5 17.5h460q25 0 42.5 -17.5t17.5 -42.5zM400 300q0 33 -23.5 56.5t-56.5 23.5t-56.5 -23.5t-23.5 -56.5t23.5 -56.5t56.5 -23.5t56.5 23.5 t23.5 56.5zM415 300q0 -39 -28 -67t-67 -28t-67 28t-28 67t28 67t67 28t67 -28t28 -67zM390 300q0 -29 -20.5 -49.5t-49.5 -20.5t-49.5 20.5t-20.5 49.5t20.5 49.5t49.5 20.5t49.5 -20.5t20.5 -49.5zM340 300q0 8 -6 14t-14 6t-14 -6t-6 -14t6 -14t14 -6t14 6t6 14zM330 300 q0 -10 -10 -10t-10 10t10 10t10 -10zM349 285q-15 -13 -24 -17v-20l9 -6q25 6 37 26l-4 11zM306 242l9 6v20l-3 3q-11 3 -17 12l-4 2l-18 -6l-4 -11q12 -20 37 -26zM290 299q0 6 1 10t3 8l3 6l-11 16h-12q-14 -17 -14 -39v-4l9 -7l19 6zM298 356l-4 -11l11 -16h4q4 1 11 1 t11 -1h4l11 16l-4 11q-12 4 -22 4t-22 -4zM350 299l2 -4l19 -6l9 7v4q0 22 -14 39h-12l-11 -16l3 -6t3 -8t1 -10z" /></g></svg>

<?xml version="1.0" encoding="UTF-8" standalone="no"?>
<svg
   xmlns:dc="http://purl.org/dc/elements/1.1/"
   xmlns:cc="http://creativecommons.org/ns#"
   xmlns:rdf="http://www.w3.org/1999/02/22-rdf-syntax-ns#"
   xmlns:svg="http://www.w3.org/2000/svg"
   xmlns="http://www.w3.org/2000/svg"
   xmlns:sodipodi="http://sodipodi.sourceforge.net/DTD/sodipodi-0.dtd"
   xmlns:inkscape="http://www.inkscape.org/namespaces/inkscape"
   inkscape:version="1.0rc1 (09960d6f05, 2020-04-09)"
   sodipodi:docname="d-2.svg"
   id="svg6"
   version="1.1"
   viewBox="30 -115 580 830">
  <metadata
     id="metadata12">
    <rdf:RDF>
      <cc:Work
         rdf:about="">
        <dc:format>image/svg+xml</dc:format>
        <dc:type
           rdf:resource="http://purl.org/dc/dcmitype/StillImage" />
      </cc:Work>
    </rdf:RDF>
  </metadata>
  <defs
     id="defs10" />
  <sodipodi:namedview
     inkscape:current-layer="svg6"
     inkscape:window-maximized="1"
     inkscape:window-y="-6"
     inkscape:window-x="-6"
     inkscape:cy="498.58279"
     inkscape:cx="352.17764"
     inkscape:zoom="0.59759036"
     showgrid="false"
     id="namedview8"
     inkscape:window-height="698"
     inkscape:window-width="1080"
     inkscape:pageshadow="2"
     inkscape:pageopacity="0"
     guidetolerance="10"
     gridtolerance="10"
     objecttolerance="10"
     borderopacity="1"
     bordercolor="#666666"
     pagecolor="#ffffff" />
  <path
     d="m 400,300 q 0,33 -23.5,56.5 Q 353,380 320,380 287,380 263.5,356.5 240,333 240,300 240,267 263.5,243.5 287,220 320,220 q 33,0 56.5,23.5 Q 400,267 400,300 Z m 15,0 q 0,-39 -28,-67 -28,-28 -67,-28 -39,0 -67,28 -28,28 -28,67 0,39 28,67 28,28 67,28 39,0 67,-28 28,-28 28,-67 z m -25,0 Q 390,271 369.5,250.5 349,230 320,230 291,230 270.5,250.5 250,271 250,300 q 0,29 20.5,49.5 Q 291,370 320,370 349,370 369.5,349.5 390,329 390,300 Z m -50,0 q 0,8 -6,14 -6,6 -14,6 -8,0 -14,-6 -6,-6 -6,-14 0,-8 6,-14 6,-6 14,-6 8,0 14,6 6,6 6,14 z m -10,0 q 0,-10 -10,-10 -10,0 -10,10 0,10 10,10 10,0 10,-10 z m 19,-15 q -15,-13 -24,-17 v -20 l 9,-6 q 25,6 37,26 l -4,11 z m -43,-43 9,6 v 20 l -3,3 q -11,3 -17,12 l -4,2 -18,-6 -4,-11 q 12,-20 37,-26 z m -16,57 q 0,6 1,10 1,4 3,8 l 3,6 -11,16 h -12 q -14,-17 -14,-39 v -4 l 9,-7 19,6 z m 8,57 -4,-11 11,-16 h 4 q 4,1 11,1 7,0 11,-1 h 4 l 11,16 -4,11 q -12,4 -22,4 -10,0 -22,-4 z m 52,-57 2,-4 19,-6 9,7 v 4 q 0,22 -14,39 h -12 l -11,-16 3,-6 q 0,0 3,-8 3,-8 1,-10 z"
     style="fill:#cc0000;fill-opacity:1;stroke:none;stroke-opacity:1"
     id="path882" />
  <path
     d="M 550,685 H 90 Q 77,685 68.5,676.5 60,668 60,655 V -55 Q 60,-68 68.5,-76.5 77,-85 90,-85 h 460 q 13,0 21.5,8.5 8.5,8.5 8.5,21.5 v 710 q 0,13 -8.5,21.5 Q 563,685 550,685 Z m 60,-30 V -55 Q 610,-80 592.5,-97.5 575,-115 550,-115 H 90 Q 65,-115 47.5,-97.5 30,-80 30,-55 v 710 q 0,25 17.5,42.5 Q 65,715 90,715 h 460 q 25,0 42.5,-17.5 Q 610,680 610,655 Z"
     style="fill:#999999;fill-opacity:1;stroke:none;stroke-opacity:1"
     id="path878" />
  <path
     d="m 280,525 q 0,33 -23.5,56.5 Q 233,605 200,605 167,605 143.5,581.5 120,558 120,525 120,492 143.5,468.5 167,445 200,445 q 33,0 56.5,23.5 Q 280,492 280,525 Z m 15,0 q 0,-39 -28,-67 -28,-28 -67,-28 -39,0 -67,28 -28,28 -28,67 0,39 28,67 28,28 67,28 39,0 67,-28 28,-28 28,-67 z m -25,0 Q 270,496 249.5,475.5 229,455 200,455 171,455 150.5,475.5 130,496 130,525 q 0,29 20.5,49.5 Q 171,595 200,595 229,595 249.5,574.5 270,554 270,525 Z m -50,0 q 0,8 -6,14 -6,6 -14,6 -8,0 -14,-6 -6,-6 -6,-14 0,-8 6,-14 6,-6 14,-6 8,0 14,6 6,6 6,14 z m -10,0 q 0,-10 -10,-10 -10,0 -10,10 0,10 10,10 10,0 10,-10 z m 19,-15 q -15,-13 -24,-17 v -20 l 9,-6 q 25,6 37,26 l -4,11 z m -43,-43 9,6 v 20 l -3,3 q -11,3 -17,12 l -4,2 -18,-6 -4,-11 q 12,-20 37,-26 z m -16,57 q 0,6 1,10 1,4 3,8 l 3,6 -11,16 h -12 q -14,-17 -14,-39 v -4 l 9,-7 19,6 z m 8,57 -4,-11 11,-16 h 4 q 4,1 11,1 7,0 11,-1 h 4 l 11,16 -4,11 q -12,4 -22,4 -10,0 -22,-4 z m 52,-57 2,-4 19,-6 9,7 v 4 q 0,22 -14,39 h -12 l -11,-16 3,-6 q 0,0 3,-8 3,-8 1,-10 z"
     style="fill:#000099;fill-opacity:1;stroke:none;stroke-opacity:1"
     id="path858" />
  <path
     d="m 520,75 q 0,33 -23.5,56.5 Q 473,155 440,155 407,155 383.5,131.5 360,108 360,75 360,42 383.5,18.5 407,-5 440,-5 473,-5 496.5,18.5 520,42 520,75 Z m 15,0 q 0,-39 -28,-67 -28,-28 -67,-28 -39,0 -67,28 -28,28 -28,67 0,39 28,67 28,28 67,28 39,0 67,-28 28,-28 28,-67 z m -25,0 Q 510,46 489.5,25.5 469,5 440,5 411,5 390.5,25.5 370,46 370,75 q 0,29 20.5,49.5 Q 411,145 440,145 469,145 489.5,124.5 510,104 510,75 Z m -50,0 q 0,8 -6,14 -6,6 -14,6 -8,0 -14,-6 -6,-6 -6,-14 0,-8 6,-14 6,-6 14,-6 8,0 14,6 6,6 6,14 z m -10,0 q 0,-10 -10,-10 -10,0 -10,10 0,10 10,10 10,0 10,-10 z M 469,60 Q 454,47 445,43 V 23 l 9,-6 q 25,6 37,26 l -4,11 z m -43,-43 9,6 v 20 l -3,3 q -11,3 -17,12 l -4,2 -18,-6 -4,-11 q 12,-20 37,-26 z m -16,57 q 0,6 1,10 1,4 3,8 l 3,6 -11,16 H 394 Q 380,97 380,75 v -4 l 9,-7 19,6 z m 8,57 -4,-11 11,-16 h 4 q 4,1 11,1 7,0 11,-1 h 4 l 11,16 -4,11 q -12,4 -22,4 -10,0 -22,-4 z m 52,-57 2,-4 19,-6 9,7 v 4 q 0,22 -14,39 h -12 l -11,-16 3,-6 q 0,0 3,-8 3,-8 1,-10 z"
     style="fill:#000099;fill-opacity:1;stroke:none;stroke-opacity:1"
     id="path2" />
</svg>
